X: 816
T: Alasdair Fraser's Welcome To Cape Breton
R: reel
M: 4/4
K: Amixolydian
|:f|eA c2 BAAc|f2 af feef|ed c2 B2 cd|e2 dB cAA:|
|:B|A2 a2 ag a2|ef g2 feef|ed c2 B2 cd|e2 dB cAA:|
|:f|eA c2 c2 Bc|eA c2 eddf|eA c2 c2 Bc|ed B2 cAA:|
|:B|a2 a2 gf f2|gf g2 feeg|fe d2 c2 Bc|e2 dB cAA:|

